www/assets/icons/thumb_down.svg

<svg xmlns="http://www.w3.org/2000/svg" width="24" height="24" viewBox="0 0 24 24" fill='currentColor'><path d="M15 2H6c-.83 0-1.54.5-1.84 1.22l-3.02 7.05c-.09.23-.14.47-.14.73v2c0 1.1.9 2 2 2h6.31l-.95 4.57-.03.32c0 .41.17.79.44 1.06L9.83 22l6.59-6.59c.36-.36.58-.86.58-1.41V4c0-1.1-.9-2-2-2m4 0v12h4V2z"/></svg>

<svg width="24" height="24" viewBox="0 0 24 24" xmlns="http://www.w3.org/2000/svg" fill='currentColor'><path d="M15 2H6C5.17 2 4.46 2.5 4.16 3.22L1.14 10.27C1.05 10.5 1 10.74 1 11V13C1 14.1 1.9 15 3 15H9.31L8.36 19.57L8.33 19.89C8.33 20.3 8.5 20.68 8.77 20.95L9.83 22L16.42 15.41C16.78 15.05 17 14.55 17 14V4C17 2.9 16.1 2 15 2ZM19 2V14H23V2H19Z"/></svg>
